X:1
T: Miss Campbell of Monzies's Reel
C:R. Mackintosh
R:Jig
Q: 180
K:Bb
M:6/8
L:1/8
|:F|D1/2E1/2FF F2B|E1/2F1/2GG G2B|A1/2B1/2cc c2e|dfb fdB|
D1/2E1/2FF F2B|E1/2F1/2GG G2B|ABc FGA|B3 B2:|
|:B|def fdB|egb bge|def fdB|ABc cAF|
|1def fdB|egb bge|def edc|B3 B2:|
|2GAB ABc|Bcd efg|fed cBA|D3 D2||
